antibot/app/images/dist/adv-img3.svg

<svg width="34" height="28" viewBox="0 0 34 28" fill="none" xmlns="http://www.w3.org/2000/svg">
<path d="M14.4167 19.8334C15.0834 20.5001 15.9445 20.8267 17 20.8134C18.0556 20.8001 18.8334 20.4179 19.3334 19.6667L28.6667 5.66675L14.6667 15.0001C13.9167 15.5001 13.5211 16.264 13.48 17.2917C13.4389 18.3195 13.7512 19.1667 14.4167 19.8334ZM17 0.66675C18.6389 0.66675 20.2156 0.896195 21.73 1.35508C23.2445 1.81397 24.6678 2.50119 26 3.41675L22.8334 5.41675C21.9167 4.94453 20.9656 4.59064 19.98 4.35508C18.9945 4.11953 18.0012 4.00119 17 4.00008C13.3056 4.00008 10.1595 5.29842 7.56171 7.89508C4.96393 10.4917 3.6656 13.6379 3.66671 17.3334C3.66671 18.5001 3.82671 19.6529 4.14671 20.7917C4.46671 21.9306 4.91782 23.0001 5.50004 24.0001H28.5C29.1389 22.9445 29.6045 21.8473 29.8967 20.7084C30.1889 19.5695 30.3345 18.389 30.3334 17.1667C30.3334 16.1667 30.215 15.1945 29.9784 14.2501C29.7417 13.3056 29.3878 12.389 28.9167 11.5001L30.9167 8.33342C31.75 9.63897 32.41 11.0279 32.8967 12.5001C33.3834 13.9723 33.64 15.5001 33.6667 17.0834C33.6945 18.6667 33.5139 20.1806 33.125 21.6251C32.7361 23.0695 32.1667 24.4445 31.4167 25.7501C31.1111 26.2501 30.6945 26.639 30.1667 26.9167C29.6389 27.1945 29.0834 27.3334 28.5 27.3334H5.50004C4.91671 27.3334 4.36115 27.1945 3.83337 26.9167C3.3056 26.639 2.88893 26.2501 2.58337 25.7501C1.86115 24.5001 1.3056 23.1734 0.916707 21.7701C0.527818 20.3668 0.333374 18.8879 0.333374 17.3334C0.333374 15.0279 0.771152 12.8679 1.64671 10.8534C2.52226 8.83897 3.71671 7.07564 5.23004 5.56342C6.74337 4.04897 8.51337 2.85397 10.54 1.97842C12.5667 1.10286 14.72 0.665639 17 0.66675Z" fill="#0085FF"/>
</svg>

<svg width="34" height="28" fill="none" xmlns="http://www.w3.org/2000/svg"><path d="M14.417 19.833c.666.667 1.527.994 2.583.98 1.056-.013 1.833-.395 2.333-1.146l9.334-14-14 9.333c-.75.5-1.146 1.264-1.187 2.292-.041 1.027.271 1.875.937 2.541ZM17 .667c1.639 0 3.216.23 4.73.688A15.37 15.37 0 0 1 26 3.417l-3.167 2a12.614 12.614 0 0 0-2.853-1.062A12.838 12.838 0 0 0 17 4c-3.694 0-6.84 1.298-9.438 3.895-2.598 2.597-3.896 5.743-3.895 9.438 0 1.167.16 2.32.48 3.459C4.467 21.93 4.917 23 5.5 24h23a12.183 12.183 0 0 0 1.397-3.292c.292-1.138.438-2.319.436-3.541 0-1-.118-1.973-.355-2.917a12.179 12.179 0 0 0-1.061-2.75l2-3.167a18.518 18.518 0 0 1 1.98 4.167c.486 1.472.743 3 .77 4.583a16.287 16.287 0 0 1-.542 4.542 17.254 17.254 0 0 1-1.708 4.125c-.306.5-.723.889-1.25 1.167a3.53 3.53 0 0 1-1.667.416h-23a3.53 3.53 0 0 1-1.667-.416 3.161 3.161 0 0 1-1.25-1.167 16.994 16.994 0 0 1-1.666-3.98 16.541 16.541 0 0 1-.584-4.437c0-2.305.438-4.465 1.314-6.48a16.957 16.957 0 0 1 3.583-5.29 16.905 16.905 0 0 1 5.31-3.585C12.567 1.103 14.72.666 17 .667Z" fill="#0085FF"/></svg>
